static/img/kroki/a1e8e800b498d32cf84e0f4d282ee6b1.svg

<?xml version="1.0" encoding="us-ascii" standalone="no"?><svg xmlns="http://www.w3.org/2000/svg" xmlns:xlink="http://www.w3.org/1999/xlink" contentStyleType="text/css" height="252px" preserveAspectRatio="none" style="width:543px;height:252px;" version="1.1" viewBox="0 0 543 252" width="543px" zoomAndPan="magnify"><defs/><g><!--class azure_key_vault--><g id="elem_azure_key_vault"><rect codeLine="23" fill="#3D176E" height="39.7891" id="azure_key_vault" rx="2.5" ry="2.5" style="stroke:#000D19;stroke-width:0.5;" width="179" x="189" y="7"/><ellipse cx="204" cy="26.8945" fill="#ADD1B2" rx="11" ry="11" style="stroke:#181818;stroke-width:1.0;"/><path d="M206.9688,32.5352 Q206.3906,32.832 205.75,32.9727 Q205.1094,33.1289 204.4063,33.1289 Q201.9063,33.1289 200.5781,31.4883 Q199.2656,29.832 199.2656,26.707 Q199.2656,23.582 200.5781,21.9258 Q201.9063,20.2695 204.4063,20.2695 Q205.1094,20.2695 205.75,20.4258 Q206.4063,20.582 206.9688,20.8789 L206.9688,23.5977 Q206.3438,23.0195 205.75,22.7539 Q205.1563,22.4727 204.5313,22.4727 Q203.1875,22.4727 202.5,23.5508 Q201.8125,24.6133 201.8125,26.707 Q201.8125,28.8008 202.5,29.8789 Q203.1875,30.9414 204.5313,30.9414 Q205.1563,30.9414 205.75,30.6758 Q206.3438,30.3945 206.9688,29.8164 L206.9688,32.5352 Z " fill="#000000"/><text fill="#D9B8FF" font-family="Helvetica" font-size="17" lengthAdjust="spacing" textLength="137" x="223" y="32.7798">azure_key_vault</text></g><!--class azure_monitor_diagnostic_settings--><g id="elem_azure_monitor_diagnostic_settings"><rect codeLine="26" fill="#3D176E" height="39.7891" id="azure_monitor_diagnostic_settings" rx="2.5" ry="2.5" style="stroke:#000D19;stroke-width:0.5;" width="332" x="112.5" y="106.79"/><ellipse cx="127.5" cy="126.6845" fill="#ADD1B2" rx="11" ry="11" style="stroke:#181818;stroke-width:1.0;"/><path d="M130.4688,132.3252 Q129.8906,132.622 129.25,132.7627 Q128.6094,132.9189 127.9063,132.9189 Q125.4063,132.9189 124.0781,131.2783 Q122.7656,129.622 122.7656,126.497 Q122.7656,123.372 124.0781,121.7158 Q125.4063,120.0595 127.9063,120.0595 Q128.6094,120.0595 129.25,120.2158 Q129.9063,120.372 130.4688,120.6689 L130.4688,123.3877 Q129.8438,122.8095 129.25,122.5439 Q128.6563,122.2627 128.0313,122.2627 Q126.6875,122.2627 126,123.3408 Q125.3125,124.4033 125.3125,126.497 Q125.3125,128.5908 126,129.6689 Q126.6875,130.7314 128.0313,130.7314 Q128.6563,130.7314 129.25,130.4658 Q129.8438,130.1845 130.4688,129.6064 L130.4688,132.3252 Z " fill="#000000"/><text fill="#D9B8FF" font-family="Helvetica" font-size="17" lengthAdjust="spacing" textLength="290" x="146.5" y="132.5698">azure_monitor_diagnostic_settings</text></g><!--class azure_monitor_workspace--><g id="elem_azure_monitor_workspace"><rect codeLine="29" fill="#3D176E" height="39.7891" id="azure_monitor_workspace" rx="2.5" ry="2.5" style="stroke:#000D19;stroke-width:0.5;" width="261" x="7" y="206.58"/><ellipse cx="22" cy="226.4745" fill="#ADD1B2" rx="11" ry="11" style="stroke:#181818;stroke-width:1.0;"/><path d="M24.9688,232.1152 Q24.3906,232.412 23.75,232.5527 Q23.1094,232.7089 22.4063,232.7089 Q19.9063,232.7089 18.5781,231.0683 Q17.2656,229.412 17.2656,226.287 Q17.2656,223.162 18.5781,221.5058 Q19.9063,219.8495 22.4063,219.8495 Q23.1094,219.8495 23.75,220.0058 Q24.4063,220.162 24.9688,220.4589 L24.9688,223.1777 Q24.3438,222.5995 23.75,222.3339 Q23.1563,222.0527 22.5313,222.0527 Q21.1875,222.0527 20.5,223.1308 Q19.8125,224.1933 19.8125,226.287 Q19.8125,228.3808 20.5,229.4589 Q21.1875,230.5214 22.5313,230.5214 Q23.1563,230.5214 23.75,230.2558 Q24.3438,229.9745 24.9688,229.3964 L24.9688,232.1152 Z " fill="#000000"/><text fill="#D9B8FF" font-family="Helvetica" font-size="17" lengthAdjust="spacing" textLength="219" x="41" y="232.3598">azure_monitor_workspace</text></g><!--class azure_storage_account--><g id="elem_azure_storage_account"><rect codeLine="32" fill="#3D176E" height="39.7891" id="azure_storage_account" rx="2.5" ry="2.5" style="stroke:#000D19;stroke-width:0.5;" width="233" x="303" y="206.58"/><ellipse cx="318" cy="226.4745" fill="#ADD1B2" rx="11" ry="11" style="stroke:#181818;stroke-width:1.0;"/><path d="M320.9688,232.1152 Q320.3906,232.412 319.75,232.5527 Q319.1094,232.7089 318.4063,232.7089 Q315.9063,232.7089 314.5781,231.0683 Q313.2656,229.412 313.2656,226.287 Q313.2656,223.162 314.5781,221.5058 Q315.9063,219.8495 318.4063,219.8495 Q319.1094,219.8495 319.75,220.0058 Q320.4063,220.162 320.9688,220.4589 L320.9688,223.1777 Q320.3438,222.5995 319.75,222.3339 Q319.1563,222.0527 318.5313,222.0527 Q317.1875,222.0527 316.5,223.1308 Q315.8125,224.1933 315.8125,226.287 Q315.8125,228.3808 316.5,229.4589 Q317.1875,230.5214 318.5313,230.5214 Q319.1563,230.5214 319.75,230.2558 Q320.3438,229.9745 320.9688,229.3964 L320.9688,232.1152 Z " fill="#000000"/><text fill="#D9B8FF" font-family="Helvetica" font-size="17" lengthAdjust="spacing" textLength="191" x="337" y="232.3598">azure_storage_account</text></g><!--link azure_key_vault to azure_monitor_diagnostic_settings--><g id="link_azure_key_vault_azure_monitor_diagnostic_settings"><path codeLine="35" d="M278.5,47.22 C278.5,64.36 278.5,83.27 278.5,100.41 " fill="none" id="azure_key_vault-to-azure_monitor_diagnostic_settings" style="stroke:#1A83AF;stroke-width:2.0;"/><polygon fill="#1A83AF" points="278.5,106.41,282.5,97.41,278.5,101.41,274.5,97.41,278.5,106.41" style="stroke:#1A83AF;stroke-width:2.0;"/></g><!--link azure_monitor_diagnostic_settings to azure_monitor_workspace--><g id="link_azure_monitor_diagnostic_settings_azure_monitor_workspace"><path codeLine="36" d="M250.64,147.01 C225.92,164.15 194.9294,185.6393 170.2294,202.7793 " fill="none" id="azure_monitor_diagnostic_settings-to-azure_monitor_workspace" style="stroke:#1A83AF;stroke-width:2.0;"/><polygon fill="#1A83AF" points="165.3,206.2,174.9746,204.3553,169.4078,203.3495,170.4137,197.7827,165.3,206.2" style="stroke:#1A83AF;stroke-width:2.0;"/></g><!--link azure_monitor_diagnostic_settings to azure_storage_account--><g id="link_azure_monitor_diagnostic_settings_azure_storage_account"><path codeLine="37" d="M306.36,147.01 C331.08,164.15 362.0706,185.6393 386.7706,202.7793 " fill="none" id="azure_monitor_diagnostic_settings-to-azure_storage_account" style="stroke:#1A83AF;stroke-width:2.0;"/><polygon fill="#1A83AF" points="391.7,206.2,386.5863,197.7827,387.5922,203.3495,382.0254,204.3553,391.7,206.2" style="stroke:#1A83AF;stroke-width:2.0;"/></g><!--SRC=[dPB1Qi9048RlUOe5puAfjEgba0hINgJKtae9u-viN9Biokn4qT9tRwnMjaarqEl-7pFVF-pAA1HOhdadIYoNI3xokR5h82X5GkIsKrSu4ZsjGGz7pN3cB7S2SoXHF6AnGJOIciJhoiZSelVY9eWUGEOPkSggutWciBwEq790JGlmFc4ciwmO0narMOwrRfBDeRsXYaTtsC8SAQGJCXWCL3nf8fshhlO-4mkpHn67HvixnfPcQyKtTTNoG0IIhQ8_-KN7Pr3As4pS1cylHoUoIB_U5ojGRdkWDHG-NECP2HtlrZXjjSB9MEdHd_3J9JYIXzC9s5U4QOwxT0DLmU8ZYZv_HQMpXXsboa1cdQ-xfHwPQqL_6Tuwoki_9h6D-3g735EGifOwBMnQzDzwSJ8U9hFt_dstHzHjUcNWsVL_OnfzeYy0]--></g></svg>

<svg xmlns="http://www.w3.org/2000/svg" width="543" height="252" viewBox="0 0 543 252"><rect width="179" height="39.789" x="189" y="7" fill="#3D176E" rx="2.5" ry="2.5" style="stroke:#000d19;stroke-width:.5"/><circle cx="204" cy="26.895" r="11" fill="#ADD1B2" style="stroke:#181818;stroke-width:1"/><path d="M206.969 32.535q-.578.297-1.219.438-.64.156-1.344.156-2.5 0-3.828-1.64-1.312-1.657-1.312-4.782t1.312-4.781q1.328-1.656 3.828-1.656.703 0 1.344.156.656.156 1.219.453v2.719q-.625-.578-1.219-.844-.594-.281-1.219-.281-1.344 0-2.031 1.078-.687 1.062-.687 3.156t.687 3.172q.688 1.062 2.031 1.062.625 0 1.219-.265.594-.281 1.219-.86z"/><text x="223" y="32.78" fill="#D9B8FF" font-family="Helvetica" font-size="17" textLength="137">azure_key_vault</text><rect width="332" height="39.789" x="112.5" y="106.79" fill="#3D176E" rx="2.5" ry="2.5" style="stroke:#000d19;stroke-width:.5"/><circle cx="127.5" cy="126.684" r="11" fill="#ADD1B2" style="stroke:#181818;stroke-width:1"/><path d="M130.469 132.325q-.578.297-1.219.438-.64.156-1.344.156-2.5 0-3.828-1.64-1.312-1.657-1.312-4.782t1.312-4.781q1.328-1.656 3.828-1.656.703 0 1.344.156.656.156 1.219.453v2.719q-.625-.579-1.219-.844-.594-.281-1.219-.281-1.344 0-2.031 1.078-.687 1.062-.687 3.156t.687 3.172q.688 1.062 2.031 1.062.625 0 1.219-.265.594-.281 1.219-.86z"/><text x="146.5" y="132.57" fill="#D9B8FF" font-family="Helvetica" font-size="17" textLength="290">azure_monitor_diagnostic_settings</text><rect width="261" height="39.789" x="7" y="206.58" fill="#3D176E" rx="2.5" ry="2.5" style="stroke:#000d19;stroke-width:.5"/><circle cx="22" cy="226.475" r="11" fill="#ADD1B2" style="stroke:#181818;stroke-width:1"/><path d="M24.969 232.115q-.578.297-1.219.438-.64.156-1.344.156-2.5 0-3.828-1.64-1.312-1.657-1.312-4.782t1.312-4.781q1.328-1.656 3.828-1.656.703 0 1.344.156.656.156 1.219.453v2.719q-.625-.578-1.219-.844-.594-.281-1.219-.281-1.343 0-2.031 1.078-.687 1.062-.687 3.156t.687 3.172q.688 1.062 2.031 1.062.625 0 1.219-.265.594-.281 1.219-.86z"/><text x="41" y="232.36" fill="#D9B8FF" font-family="Helvetica" font-size="17" textLength="219">azure_monitor_workspace</text><rect width="233" height="39.789" x="303" y="206.58" fill="#3D176E" rx="2.5" ry="2.5" style="stroke:#000d19;stroke-width:.5"/><circle cx="318" cy="226.475" r="11" fill="#ADD1B2" style="stroke:#181818;stroke-width:1"/><path d="M320.969 232.115q-.578.297-1.219.438-.64.156-1.344.156-2.5 0-3.828-1.64-1.312-1.657-1.312-4.782t1.312-4.781q1.328-1.656 3.828-1.656.703 0 1.344.156.656.156 1.219.453v2.719q-.625-.578-1.219-.844-.594-.281-1.219-.281-1.344 0-2.031 1.078-.687 1.062-.687 3.156t.687 3.172q.688 1.062 2.031 1.062.625 0 1.219-.265.594-.281 1.219-.86z"/><text x="337" y="232.36" fill="#D9B8FF" font-family="Helvetica" font-size="17" textLength="191">azure_storage_account</text><path fill="none" d="M278.5 47.22v53.19" style="stroke:#1a83af;stroke-width:2"/><path fill="#1A83AF" d="m278.5 106.41 4-9-4 4-4-4z" style="stroke:#1a83af;stroke-width:2"/><path fill="none" d="M250.64 147.01c-24.72 17.14-55.71 38.63-80.41 55.77" style="stroke:#1a83af;stroke-width:2"/><path fill="#1A83AF" d="m165.3 206.2 9.675-1.845-5.567-1.005 1.006-5.567z" style="stroke:#1a83af;stroke-width:2"/><path fill="none" d="M306.36 147.01c24.72 17.14 55.71 38.63 80.41 55.77" style="stroke:#1a83af;stroke-width:2"/><path fill="#1A83AF" d="m391.7 206.2-5.114-8.417 1.006 5.567-5.567 1.005z" style="stroke:#1a83af;stroke-width:2"/></svg>
